report_00007_2020-12-11T15:55:29.892Z/network-rtt/comparison/line/10_vs_11.svg

<svg width="640" height="500" xmlns="http://www.w3.org/2000/svg" xmlns:xlink="http://www.w3.org/1999/xlink"><path fill="#fff" d="M0 0h640v500H0z"/><defs><path id="d" stroke-width=".222" stroke="currentColor" d="M-1-1h2v2h-2z"/><path id="b" stroke-width=".222" stroke="currentColor" d="M0-1.33l-1.33 2h2.66z"/><path id="f" stroke-width=".222" stroke="currentColor" d="M0 1.33L1.265.411.782-1.067l-1.564-.009-.483 1.487z"/><use xlink:href="#b" id="c" stroke="currentColor" transform="rotate(180)"/><use xlink:href="#d" id="e" stroke="currentColor" transform="rotate(45)"/><circle id="a" stroke-width=".222" stroke="currentColor" cx="0" cy="0" r="1"/></defs><g fill="none" color="#000" stroke="currentColor"><path stroke="#000" d="M53.9 424.3h9m552.1 0h-9"/><text transform="translate(45.6 428.2)" stroke="none" fill="#000" font-family="Arial" font-size="12" text-anchor="end"><tspan>0</tspan></text></g><g fill="none" color="#000" stroke="currentColor"><path stroke="#000" d="M53.9 369.5h9m552.1 0h-9"/><text transform="translate(45.6 373.4)" stroke="none" fill="#000" font-family="Arial" font-size="12" text-anchor="end"><tspan>0.5</tspan></text></g><g fill="none" color="#000" stroke="currentColor"><path stroke="#000" d="M53.9 314.6h9m552.1 0h-9"/><text transform="translate(45.6 318.5)" stroke="none" fill="#000" font-family="Arial" font-size="12" text-anchor="end"><tspan>1</tspan></text></g><g fill="none" color="#000" stroke="currentColor"><path stroke="#000" d="M53.9 259.8h9m552.1 0h-9"/><text transform="translate(45.6 263.7)" stroke="none" fill="#000" font-family="Arial" font-size="12" text-anchor="end"><tspan>1.5</tspan></text></g><g fill="none" color="#000" stroke="currentColor"><path stroke="#000" d="M53.9 205h9m552.1 0h-9"/><text transform="translate(45.6 208.9)" stroke="none" fill="#000" font-family="Arial" font-size="12" text-anchor="end"><tspan>2</tspan></text></g><g fill="none" color="#000" stroke="currentColor"><path stroke="#000" d="M53.9 150.1h9m552.1 0h-9"/><text transform="translate(45.6 154)" stroke="none" fill="#000" font-family="Arial" font-size="12" text-anchor="end"><tspan>2.5</tspan></text></g><g fill="none" color="#000" stroke="currentColor"><path stroke="#000" d="M53.9 95.3h9m552.1 0h-9"/><text transform="translate(45.6 99.2)" stroke="none" fill="#000" font-family="Arial" font-size="12" text-anchor="end"><tspan>3</tspan></text></g><g fill="none" color="#000" stroke="currentColor"><path stroke="#000" d="M53.9 40.5h9m552.1 0h-9"/><text transform="translate(45.6 44.4)" stroke="none" fill="#000" font-family="Arial" font-size="12" text-anchor="end"><tspan>3.5</tspan></text></g><g fill="none" color="#000" stroke="currentColor"><path stroke="#000" d="M53.9 428v-9m0-400.9v9"/><text transform="translate(53.9 449.9)" stroke="none" fill="#000" font-family="Arial" font-size="12" text-anchor="middle"><tspan>0</tspan></text></g><g fill="none" color="#000" stroke="currentColor"><path stroke="#000" d="M110.6 428v-9m0-400.9v9"/><text transform="translate(110.6 449.9)" stroke="none" fill="#000" font-family="Arial" font-size="12" text-anchor="middle"><tspan>10</tspan></text></g><g fill="none" color="#000" stroke="currentColor"><path stroke="#000" d="M167.3 428v-9m0-400.9v9"/><text transform="translate(167.3 449.9)" stroke="none" fill="#000" font-family="Arial" font-size="12" text-anchor="middle"><tspan>20</tspan></text></g><g fill="none" color="#000" stroke="currentColor"><path stroke="#000" d="M223.9 428v-9m0-400.9v9"/><text transform="translate(223.9 449.9)" stroke="none" fill="#000" font-family="Arial" font-size="12" text-anchor="middle"><tspan>30</tspan></text></g><g fill="none" color="#000" stroke="currentColor"><path stroke="#000" d="M280.6 428v-9m0-400.9v9"/><text transform="translate(280.6 449.9)" stroke="none" fill="#000" font-family="Arial" font-size="12" text-anchor="middle"><tspan>40</tspan></text></g><g fill="none" color="#000" stroke="currentColor"><path stroke="#000" d="M337.3 428v-9m0-400.9v9"/><text transform="translate(337.3 449.9)" stroke="none" fill="#000" font-family="Arial" font-size="12" text-anchor="middle"><tspan>50</tspan></text></g><g fill="none" color="#000" stroke="currentColor"><path stroke="#000" d="M394 428v-9m0-400.9v9"/><text transform="translate(394 449.9)" stroke="none" fill="#000" font-family="Arial" font-size="12" text-anchor="middle"><tspan>60</tspan></text></g><g fill="none" color="#000" stroke="currentColor"><path stroke="#000" d="M450.6 428v-9m0-400.9v9"/><text transform="translate(450.6 449.9)" stroke="none" fill="#000" font-family="Arial" font-size="12" text-anchor="middle"><tspan>70</tspan></text></g><g fill="none" color="#000" stroke="currentColor"><path stroke="#000" d="M507.3 428v-9m0-400.9v9"/><text transform="translate(507.3 449.9)" stroke="none" fill="#000" font-family="Arial" font-size="12" text-anchor="middle"><tspan>80</tspan></text></g><g fill="none" color="#000" stroke="currentColor"><path stroke="#000" d="M564 428v-9m0-400.9v9"/><text transform="translate(564 449.9)" stroke="none" fill="#000" font-family="Arial" font-size="12" text-anchor="middle"><tspan>90</tspan></text></g><path stroke="#000" d="M53.9 18.1V428H615V18.1H53.9z" fill="none" color="#000"/><text transform="translate(483.5 467.9)" stroke="none" fill="#000" font-family="Arial" font-size="12" text-anchor="end" color="#000"><tspan>pages+cached+noexternal+nojs</tspan></text><path stroke="#9400D3" d="M491.8 464H534M53.9 415.5l5.7-1.1 5.6 1.9 5.7-.1 5.7.1 5.6 1.9 5.7-3.5 5.7 1.4 5.6.1 5.7-2.1 5.7-4.8 5.6 8.1 5.7-4.5 5.7 4.7 5.6-5.5 5.7 6.1 5.7-9.9 5.7 1.3 5.6 6.5 5.7.8 5.7-3.1 5.6 3.5 5.7-.3 5.7-7.9 5.6 7.6 5.7-3.7 5.7 5.8 5.6-2.7 5.7 2.5 5.7-10.5 5.6 10.5 5.7 1.5L235.3 79l5.6 328.4 5.7 7.3 5.7-.2 5.6 1.6 5.7.5 5.7 1.5 5.6-3.4 5.7 3.4 5.7-.9 5.6-377.1 5.7 376.2 5.7-.1 5.6-.7 5.7 2.9 5.7-1.8 5.6-.9 5.7 2.7 5.7-310.3 5.7 308.1 5.6.1 5.7-7.7 5.7 9.5L365.6 26l5.7 390.7 5.7-11 5.6 6 5.7 4.8 5.7-1.7 5.6-.3 5.7-.7 5.7 3.5 5.6-5.3 5.7 4.1 5.7-7.2 5.6 6.7 5.7 1 5.7-.7 5.6-4.9 5.7 6 5.7-1.5 5.6 2.4 5.7 1 5.7-2.2 5.6-1.9 5.7 2.3 5.7 1.6 5.6-10.1 5.7 9.5 5.7-.5 5.6-.6 5.7 2 5.7-3.4 5.7 3.3 5.6-2.2 5.7.2 5.7-.3 5.6-.7 5.7-5.7 5.7 8 5.6-1.1 5.7-8.7 5.7 7.1 5.6 1.7 5.7-1 5.7-.5 5.6-2.2 5.7.4" fill="none" color="#000"/><text transform="translate(483.5 485.9)" stroke="none" fill="#000" font-family="Arial" font-size="12" text-anchor="end" color="#000"><tspan>pages+cached+noexternal+nofonts+nosvg+noimg</tspan></text><path stroke="#009E73" d="M491.8 482H534M53.9 416l5.7 1.4 5.6 1 5.7-.5 5.7-2.4 5.6.6 5.7 1.4 5.7.6 5.6-1.6 5.7 1.2 5.7 1.1 5.6-2.4h5.7l5.7.1h5.6l5.7-1.2 5.7 2.9 5.7-2.8 5.6 1.4 5.7-1.1 5.7 2.2 5.6-1.1 5.7 2.1 5.7-1.2 5.6-1.7 5.7 1.6 5.7 1 5.6-3 5.7.4 5.7-.5 5.6 2 5.7-1.3 5.7-.3 5.6.2 5.7 2.4 5.7-.4 5.6-2.2 5.7.3 5.7.5 5.6-2.3 5.7 4.9 5.7-1 5.6-1.2 5.7.3 5.7-1.9 5.6-.2 5.7 3.1 5.7-2.7 5.6 3 5.7-.1 5.7-1.3 5.7 1.7 5.6-1.7 5.7.4 5.7.9 5.6-2.4 5.7.8 5.7-.5 5.6.9h5.7l5.7.3 5.6 1.2 5.7-2.7 5.7-1.5 5.6 3.2 5.7.4 5.7-.9 5.6 1.5 5.7-1.4 5.7-1.1 5.6.4 5.7 2.1 5.7-2.1h5.6l5.7 2.4 5.7-2.8 5.6-.1 5.7 1.6 5.7-1.2 5.6.6 5.7-.9 5.7 1.7 5.6-2 5.7 3.6 5.7-1.4 5.7.9 5.6-2.8 5.7-1.9 5.7 2.8 5.6-.6 5.7.4 5.7-.1 5.6 2.1 5.7-.6 5.7.4 5.6-.1 5.7-3.4 5.7.5 5.6 1.4 5.7-.9" fill="none" color="#000"/><g fill="none" color="#000" stroke="currentColor"><path stroke="#000" d="M53.9 18.1V428H615V18.1H53.9z"/></g></svg>

<?xml version="1.0" encoding="utf-8"  standalone="no"?>
<svg 
 width="640" height="500"
 viewBox="0 0 640 500"
 xmlns="http://www.w3.org/2000/svg"
 xmlns:xlink="http://www.w3.org/1999/xlink"
>

<title>Gnuplot</title>
<desc>Produced by GNUPLOT 5.4 patchlevel 0 </desc>

<g id="gnuplot_canvas">

<rect x="0" y="0" width="640" height="500" fill="#ffffff"/>
<defs>

	<circle id='gpDot' r='0.5' stroke-width='0.5' stroke='currentColor'/>
	<path id='gpPt0' stroke-width='0.222' stroke='currentColor' d='M-1,0 h2 M0,-1 v2'/>
	<path id='gpPt1' stroke-width='0.222' stroke='currentColor' d='M-1,-1 L1,1 M1,-1 L-1,1'/>
	<path id='gpPt2' stroke-width='0.222' stroke='currentColor' d='M-1,0 L1,0 M0,-1 L0,1 M-1,-1 L1,1 M-1,1 L1,-1'/>
	<rect id='gpPt3' stroke-width='0.222' stroke='currentColor' x='-1' y='-1' width='2' height='2'/>
	<rect id='gpPt4' stroke-width='0.222' stroke='currentColor' fill='currentColor' x='-1' y='-1' width='2' height='2'/>
	<circle id='gpPt5' stroke-width='0.222' stroke='currentColor' cx='0' cy='0' r='1'/>
	<use xlink:href='#gpPt5' id='gpPt6' fill='currentColor' stroke='none'/>
	<path id='gpPt7' stroke-width='0.222' stroke='currentColor' d='M0,-1.33 L-1.33,0.67 L1.33,0.67 z'/>
	<use xlink:href='#gpPt7' id='gpPt8' fill='currentColor' stroke='none'/>
	<use xlink:href='#gpPt7' id='gpPt9' stroke='currentColor' transform='rotate(180)'/>
	<use xlink:href='#gpPt9' id='gpPt10' fill='currentColor' stroke='none'/>
	<use xlink:href='#gpPt3' id='gpPt11' stroke='currentColor' transform='rotate(45)'/>
	<use xlink:href='#gpPt11' id='gpPt12' fill='currentColor' stroke='none'/>
	<path id='gpPt13' stroke-width='0.222' stroke='currentColor' d='M0,1.330 L1.265,0.411 L0.782,-1.067 L-0.782,-1.076 L-1.265,0.411 z'/>
	<use xlink:href='#gpPt13' id='gpPt14' fill='currentColor' stroke='none'/>
	<filter id='textbox' filterUnits='objectBoundingBox' x='0' y='0' height='1' width='1'>
	  <feFlood flood-color='#FFFFFF' flood-opacity='1' result='bgnd'/>
	  <feComposite in='SourceGraphic' in2='bgnd' operator='atop'/>
	</filter>
	<filter id='greybox' filterUnits='objectBoundingBox' x='0' y='0' height='1' width='1'>
	  <feFlood flood-color='lightgrey' flood-opacity='1' result='grey'/>
	  <feComposite in='SourceGraphic' in2='grey' operator='atop'/>
	</filter>
</defs>
<g fill="none" color="#FFFFFF" stroke="black" stroke-width="1.00" stroke-linecap="butt" stroke-linejoin="miter">
</g>
<g fill="none" color="black" stroke="currentColor" stroke-width="1.00" stroke-linecap="butt" stroke-linejoin="miter">
	<path stroke='black'  d='M53.9,424.3 L62.9,424.3 M615.0,424.3 L606.0,424.3  '/>	<g transform="translate(45.6,428.2)" stroke="none" fill="black" font-family="Arial" font-size="12.00"  text-anchor="end">
		<text><tspan font-family="Arial" > 0</tspan></text>
	</g>
</g>
<g fill="none" color="black" stroke="currentColor" stroke-width="1.00" stroke-linecap="butt" stroke-linejoin="miter">
	<path stroke='black'  d='M53.9,369.5 L62.9,369.5 M615.0,369.5 L606.0,369.5  '/>	<g transform="translate(45.6,373.4)" stroke="none" fill="black" font-family="Arial" font-size="12.00"  text-anchor="end">
		<text><tspan font-family="Arial" > 0.5</tspan></text>
	</g>
</g>
<g fill="none" color="black" stroke="currentColor" stroke-width="1.00" stroke-linecap="butt" stroke-linejoin="miter">
	<path stroke='black'  d='M53.9,314.6 L62.9,314.6 M615.0,314.6 L606.0,314.6  '/>	<g transform="translate(45.6,318.5)" stroke="none" fill="black" font-family="Arial" font-size="12.00"  text-anchor="end">
		<text><tspan font-family="Arial" > 1</tspan></text>
	</g>
</g>
<g fill="none" color="black" stroke="currentColor" stroke-width="1.00" stroke-linecap="butt" stroke-linejoin="miter">
	<path stroke='black'  d='M53.9,259.8 L62.9,259.8 M615.0,259.8 L606.0,259.8  '/>	<g transform="translate(45.6,263.7)" stroke="none" fill="black" font-family="Arial" font-size="12.00"  text-anchor="end">
		<text><tspan font-family="Arial" > 1.5</tspan></text>
	</g>
</g>
<g fill="none" color="black" stroke="currentColor" stroke-width="1.00" stroke-linecap="butt" stroke-linejoin="miter">
	<path stroke='black'  d='M53.9,205.0 L62.9,205.0 M615.0,205.0 L606.0,205.0  '/>	<g transform="translate(45.6,208.9)" stroke="none" fill="black" font-family="Arial" font-size="12.00"  text-anchor="end">
		<text><tspan font-family="Arial" > 2</tspan></text>
	</g>
</g>
<g fill="none" color="black" stroke="currentColor" stroke-width="1.00" stroke-linecap="butt" stroke-linejoin="miter">
	<path stroke='black'  d='M53.9,150.1 L62.9,150.1 M615.0,150.1 L606.0,150.1  '/>	<g transform="translate(45.6,154.0)" stroke="none" fill="black" font-family="Arial" font-size="12.00"  text-anchor="end">
		<text><tspan font-family="Arial" > 2.5</tspan></text>
	</g>
</g>
<g fill="none" color="black" stroke="currentColor" stroke-width="1.00" stroke-linecap="butt" stroke-linejoin="miter">
	<path stroke='black'  d='M53.9,95.3 L62.9,95.3 M615.0,95.3 L606.0,95.3  '/>	<g transform="translate(45.6,99.2)" stroke="none" fill="black" font-family="Arial" font-size="12.00"  text-anchor="end">
		<text><tspan font-family="Arial" > 3</tspan></text>
	</g>
</g>
<g fill="none" color="black" stroke="currentColor" stroke-width="1.00" stroke-linecap="butt" stroke-linejoin="miter">
	<path stroke='black'  d='M53.9,40.5 L62.9,40.5 M615.0,40.5 L606.0,40.5  '/>	<g transform="translate(45.6,44.4)" stroke="none" fill="black" font-family="Arial" font-size="12.00"  text-anchor="end">
		<text><tspan font-family="Arial" > 3.5</tspan></text>
	</g>
</g>
<g fill="none" color="black" stroke="currentColor" stroke-width="1.00" stroke-linecap="butt" stroke-linejoin="miter">
	<path stroke='black'  d='M53.9,428.0 L53.9,419.0 M53.9,18.1 L53.9,27.1  '/>	<g transform="translate(53.9,449.9)" stroke="none" fill="black" font-family="Arial" font-size="12.00"  text-anchor="middle">
		<text><tspan font-family="Arial" > 0</tspan></text>
	</g>
</g>
<g fill="none" color="black" stroke="currentColor" stroke-width="1.00" stroke-linecap="butt" stroke-linejoin="miter">
	<path stroke='black'  d='M110.6,428.0 L110.6,419.0 M110.6,18.1 L110.6,27.1  '/>	<g transform="translate(110.6,449.9)" stroke="none" fill="black" font-family="Arial" font-size="12.00"  text-anchor="middle">
		<text><tspan font-family="Arial" > 10</tspan></text>
	</g>
</g>
<g fill="none" color="black" stroke="currentColor" stroke-width="1.00" stroke-linecap="butt" stroke-linejoin="miter">
	<path stroke='black'  d='M167.3,428.0 L167.3,419.0 M167.3,18.1 L167.3,27.1  '/>	<g transform="translate(167.3,449.9)" stroke="none" fill="black" font-family="Arial" font-size="12.00"  text-anchor="middle">
		<text><tspan font-family="Arial" > 20</tspan></text>
	</g>
</g>
<g fill="none" color="black" stroke="currentColor" stroke-width="1.00" stroke-linecap="butt" stroke-linejoin="miter">
	<path stroke='black'  d='M223.9,428.0 L223.9,419.0 M223.9,18.1 L223.9,27.1  '/>	<g transform="translate(223.9,449.9)" stroke="none" fill="black" font-family="Arial" font-size="12.00"  text-anchor="middle">
		<text><tspan font-family="Arial" > 30</tspan></text>
	</g>
</g>
<g fill="none" color="black" stroke="currentColor" stroke-width="1.00" stroke-linecap="butt" stroke-linejoin="miter">
	<path stroke='black'  d='M280.6,428.0 L280.6,419.0 M280.6,18.1 L280.6,27.1  '/>	<g transform="translate(280.6,449.9)" stroke="none" fill="black" font-family="Arial" font-size="12.00"  text-anchor="middle">
		<text><tspan font-family="Arial" > 40</tspan></text>
	</g>
</g>
<g fill="none" color="black" stroke="currentColor" stroke-width="1.00" stroke-linecap="butt" stroke-linejoin="miter">
	<path stroke='black'  d='M337.3,428.0 L337.3,419.0 M337.3,18.1 L337.3,27.1  '/>	<g transform="translate(337.3,449.9)" stroke="none" fill="black" font-family="Arial" font-size="12.00"  text-anchor="middle">
		<text><tspan font-family="Arial" > 50</tspan></text>
	</g>
</g>
<g fill="none" color="black" stroke="currentColor" stroke-width="1.00" stroke-linecap="butt" stroke-linejoin="miter">
	<path stroke='black'  d='M394.0,428.0 L394.0,419.0 M394.0,18.1 L394.0,27.1  '/>	<g transform="translate(394.0,449.9)" stroke="none" fill="black" font-family="Arial" font-size="12.00"  text-anchor="middle">
		<text><tspan font-family="Arial" > 60</tspan></text>
	</g>
</g>
<g fill="none" color="black" stroke="currentColor" stroke-width="1.00" stroke-linecap="butt" stroke-linejoin="miter">
	<path stroke='black'  d='M450.6,428.0 L450.6,419.0 M450.6,18.1 L450.6,27.1  '/>	<g transform="translate(450.6,449.9)" stroke="none" fill="black" font-family="Arial" font-size="12.00"  text-anchor="middle">
		<text><tspan font-family="Arial" > 70</tspan></text>
	</g>
</g>
<g fill="none" color="black" stroke="currentColor" stroke-width="1.00" stroke-linecap="butt" stroke-linejoin="miter">
	<path stroke='black'  d='M507.3,428.0 L507.3,419.0 M507.3,18.1 L507.3,27.1  '/>	<g transform="translate(507.3,449.9)" stroke="none" fill="black" font-family="Arial" font-size="12.00"  text-anchor="middle">
		<text><tspan font-family="Arial" > 80</tspan></text>
	</g>
</g>
<g fill="none" color="black" stroke="currentColor" stroke-width="1.00" stroke-linecap="butt" stroke-linejoin="miter">
	<path stroke='black'  d='M564.0,428.0 L564.0,419.0 M564.0,18.1 L564.0,27.1  '/>	<g transform="translate(564.0,449.9)" stroke="none" fill="black" font-family="Arial" font-size="12.00"  text-anchor="middle">
		<text><tspan font-family="Arial" > 90</tspan></text>
	</g>
</g>
<g fill="none" color="black" stroke="currentColor" stroke-width="1.00" stroke-linecap="butt" stroke-linejoin="miter">
</g>
<g fill="none" color="black" stroke="currentColor" stroke-width="1.00" stroke-linecap="butt" stroke-linejoin="miter">
	<path stroke='black'  d='M53.9,18.1 L53.9,428.0 L615.0,428.0 L615.0,18.1 L53.9,18.1 Z  '/></g>
<g fill="none" color="black" stroke="currentColor" stroke-width="1.00" stroke-linecap="butt" stroke-linejoin="miter">
</g>
	<g id="gnuplot_plot_1" ><title>pages+cached+noexternal+nojs</title>
<g fill="none" color="black" stroke="currentColor" stroke-width="1.00" stroke-linecap="butt" stroke-linejoin="miter">
	<g transform="translate(483.5,467.9)" stroke="none" fill="black" font-family="Arial" font-size="12.00"  text-anchor="end">
		<text><tspan font-family="Arial" >pages+cached+noexternal+nojs</tspan></text>
	</g>
</g>
<g fill="none" color="black" stroke="currentColor" stroke-width="1.00" stroke-linecap="butt" stroke-linejoin="miter">
	<path stroke='rgb(148,   0, 211)'  d='M491.8,464.0 L534.0,464.0 M53.9,415.5 L59.6,414.4 L65.2,416.3 L70.9,416.2 L76.6,416.3 L82.2,418.2
		L87.9,414.7 L93.6,416.1 L99.2,416.2 L104.9,414.1 L110.6,409.3 L116.2,417.4 L121.9,412.9 L127.6,417.6
		L133.2,412.1 L138.9,418.2 L144.6,408.3 L150.3,409.6 L155.9,416.1 L161.6,416.9 L167.3,413.8 L172.9,417.3
		L178.6,417.0 L184.3,409.1 L189.9,416.7 L195.6,413.0 L201.3,418.8 L206.9,416.1 L212.6,418.6 L218.3,408.1
		L223.9,418.6 L229.6,420.1 L235.3,79.0 L240.9,407.4 L246.6,414.7 L252.3,414.5 L257.9,416.1 L263.6,416.6
		L269.3,418.1 L274.9,414.7 L280.6,418.1 L286.3,417.2 L291.9,40.1 L297.6,416.3 L303.3,416.2 L308.9,415.5
		L314.6,418.4 L320.3,416.6 L325.9,415.7 L331.6,418.4 L337.3,108.1 L343.0,416.2 L348.6,416.3 L354.3,408.6
		L360.0,418.1 L365.6,26.0 L371.3,416.7 L377.0,405.7 L382.6,411.7 L388.3,416.5 L394.0,414.8 L399.6,414.5
		L405.3,413.8 L411.0,417.3 L416.6,412.0 L422.3,416.1 L428.0,408.9 L433.6,415.6 L439.3,416.6 L445.0,415.9
		L450.6,411.0 L456.3,417.0 L462.0,415.5 L467.6,417.9 L473.3,418.9 L479.0,416.7 L484.6,414.8 L490.3,417.1
		L496.0,418.7 L501.6,408.6 L507.3,418.1 L513.0,417.6 L518.6,417.0 L524.3,419.0 L530.0,415.6 L535.7,418.9
		L541.3,416.7 L547.0,416.9 L552.7,416.6 L558.3,415.9 L564.0,410.2 L569.7,418.2 L575.3,417.1 L581.0,408.4
		L586.7,415.5 L592.3,417.2 L598.0,416.2 L603.7,415.7 L609.3,413.5 L615.0,413.9  '/></g>
	</g>
	<g id="gnuplot_plot_2" ><title>pages+cached+noexternal+nofonts+nosvg+noimg</title>
<g fill="none" color="black" stroke="currentColor" stroke-width="1.00" stroke-linecap="butt" stroke-linejoin="miter">
	<g transform="translate(483.5,485.9)" stroke="none" fill="black" font-family="Arial" font-size="12.00"  text-anchor="end">
		<text><tspan font-family="Arial" >pages+cached+noexternal+nofonts+nosvg+noimg</tspan></text>
	</g>
</g>
<g fill="none" color="black" stroke="currentColor" stroke-width="1.00" stroke-linecap="butt" stroke-linejoin="miter">
	<path stroke='rgb(  0, 158, 115)'  d='M491.8,482.0 L534.0,482.0 M53.9,416.0 L59.6,417.4 L65.2,418.4 L70.9,417.9 L76.6,415.5 L82.2,416.1
		L87.9,417.5 L93.6,418.1 L99.2,416.5 L104.9,417.7 L110.6,418.8 L116.2,416.4 L121.9,416.4 L127.6,416.5
		L133.2,416.5 L138.9,415.3 L144.6,418.2 L150.3,415.4 L155.9,416.8 L161.6,415.7 L167.3,417.9 L172.9,416.8
		L178.6,418.9 L184.3,417.7 L189.9,416.0 L195.6,417.6 L201.3,418.6 L206.9,415.6 L212.6,416.0 L218.3,415.5
		L223.9,417.5 L229.6,416.2 L235.3,415.9 L240.9,416.1 L246.6,418.5 L252.3,418.1 L257.9,415.9 L263.6,416.2
		L269.3,416.7 L274.9,414.4 L280.6,419.3 L286.3,418.3 L291.9,417.1 L297.6,417.4 L303.3,415.5 L308.9,415.3
		L314.6,418.4 L320.3,415.7 L325.9,418.7 L331.6,418.6 L337.3,417.3 L343.0,419.0 L348.6,417.3 L354.3,417.7
		L360.0,418.6 L365.6,416.2 L371.3,417.0 L377.0,416.5 L382.6,417.4 L388.3,417.4 L394.0,417.7 L399.6,418.9
		L405.3,416.2 L411.0,414.7 L416.6,417.9 L422.3,418.3 L428.0,417.4 L433.6,418.9 L439.3,417.5 L445.0,416.4
		L450.6,416.8 L456.3,418.9 L462.0,416.8 L467.6,416.8 L473.3,419.2 L479.0,416.4 L484.6,416.3 L490.3,417.9
		L496.0,416.7 L501.6,417.3 L507.3,416.4 L513.0,418.1 L518.6,416.1 L524.3,419.7 L530.0,418.3 L535.7,419.2
		L541.3,416.4 L547.0,414.5 L552.7,417.3 L558.3,416.7 L564.0,417.1 L569.7,417.0 L575.3,419.1 L581.0,418.5
		L586.7,418.9 L592.3,418.8 L598.0,415.4 L603.7,415.9 L609.3,417.3 L615.0,416.4  '/></g>
	</g>
<g fill="none" color="#FFFFFF" stroke="rgb(  0, 158, 115)" stroke-width="2.00" stroke-linecap="butt" stroke-linejoin="miter">
</g>
<g fill="none" color="black" stroke="currentColor" stroke-width="2.00" stroke-linecap="butt" stroke-linejoin="miter">
</g>
<g fill="none" color="black" stroke="black" stroke-width="1.00" stroke-linecap="butt" stroke-linejoin="miter">
</g>
<g fill="none" color="black" stroke="currentColor" stroke-width="1.00" stroke-linecap="butt" stroke-linejoin="miter">
	<path stroke='black'  d='M53.9,18.1 L53.9,428.0 L615.0,428.0 L615.0,18.1 L53.9,18.1 Z  '/></g>
<g fill="none" color="black" stroke="currentColor" stroke-width="1.00" stroke-linecap="butt" stroke-linejoin="miter">
</g>
</g>
</svg>
